X:7018
T:George Green's College Hornpipe
R:Hornpipe
C:Trad.
O:England, East Anglia
Z:Paul Hardy's Session Tunebook 2015 (see www.paulhardy.net). Creative Commons cc by-nc-sa licenced.
M:4/4
L:1/8
Q:1/4=120
K:G
(3DEF|"G"GBAG "D"F2 (3DEF|"G"GBAG "D"F2d2|"C"cBAG "D"FDEF|"Am"AGFE "D"D2 (3DEF|
"G"GBAG "D"F2 (3DEF|"G"GBAG "D"F2d2|"C"cBAG "D"FDEF|"G"G2B2 G2:|
|:GA|"Bm"B2d2 B2d2|"C"edcB c4|"Am"cBAG "D"FDEF|"Am"AGFE "D"D2 (3DEF|
"G"GBAG "D"F2 (3DEF|"G"GBAG "D"F2d2|"C"cBAG "D"FDEF|"G"G2B2 G2:|

